X:1
T:The Homeland
T:The Homeland
T:John Bunyan Herbert, 1901
T:Lucy Jane Rider Meyer (1849-1922)
T:Public Domain Courtesy of the Cyber Hymnal™
T:Public Domain Courtesy of the Cyber Hymnal™
C:John Bunyan Herbert, 1901
Z:Public Domain
Z:Courtesy of the Cyber Hymnal™
%%score ( 1 2 ) ( 3 4 )
L:1/8
Q:1/4=107
M:4/4
K:G
V:1 treble 
V:2 treble 
V:3 bass 
V:4 bass 
V:1
 [DG]2 | [DG]2 [DF]2 ([CE]2 [CF]2) | (A2 G2) [B,D]2 [B,G]2 | [CB]2 [CA]2 [^CE]2 [CA]2 | A6 [DG]2 | %5
w: 1.~O|Home- land! O *|Home- * land! No|lone- ly heart is|there, No|
w: 2.~O|Home- land! O *|Home- * land! No|moan- ing of the|sick, No|
w: 3.~O|Home- land! O *|Home- * land! The|veil is ve- ry|thin That|
w: 4.~O|Home- land! O *|Home- * land! One—|Chief of all thy|band, One—|
 [DG]2 [DF]2 [CE]2 [CF]2 | (A2 G2) [DB]2 [=Fd]2 | [Ed]2 [Ec]2 [DE]2 [CF]2 | [B,G]6 [=FG]2 | %9
w: rush of blind- ing|an- * guish, No|slow- ly drop- ping|tear: Now|
w: cry- ing of the|wea- * ry, No|sigh- ing of the|weak. But|
w: stretch- es thy dear|mea- * dows And|this cold world be-|tween; A|
w: al- to- ge- ther|love- * ly, One—|Lord of all the|land— Stands,|
 [EA]2 [EG]2 [Ec]2 [Gd]2 | e4 [Gd]2 [Ac]2 | [GB]2 [Fd]2 G2 [Ac]2 | B4 [FA]2 [DG]2 | %13
w: like an in- fant|cry- ing Its|mo- ther’s face to|see, O Mo-|
w: sound of child- ren’s|voic- es, And|shout of saint- ly|song, Are heard|
w: breath a- side may|blow it, A|heart- throb burst it|through, And bring|
w: ea- ger at the|gate- way; The|Bride- groom waits His|bride; And rest-|
 [DG]2 [DF]2 [CE]2 [CF]2 | (A2 G2) [DB]2 [=Fd]2 | [Ed]2 [Ec]2 [DE]2 [CF]2 | [B,G]6 |] %17
w: * ther land, O|Home- * land! I|stretch my arms to|thee!|
w: * thy hap- py|high- * ways And|gold- en streets a-|long.|
w: * in one glad|mo- * ment Thy|hap- py lands to|view.|
w: * ing on His|bo- * som, “I|shall be sa- tis-|fied.”|
V:2
 x2 | x8 | B,4 x4 | x8 | (D2 E2 F2) x2 | x8 | B,4 x4 | x8 | x8 | x8 | (G2 F2) x4 | x4 G2 x2 | %12
 G2 E2 x4 | x8 | B,4 x4 | x8 | x6 |] %17
V:3
 [G,B,]2 | [A,C]2 [A,C]2 ([D,A,]2 [D,A,]2) | G,4 [G,,G,]2 [G,,G,]2 | %3
 [C,E,]2 [C,E,]2 [E,A,]2 [E,G,]2 | (F,2 G,2 A,2) [G,B,]2 | [A,C]2 [A,C]2 [D,A,]2 [D,A,]2 | %6
 [G,,G,]4 G,2 [B,,G,]2 | [C,G,]2 [C,G,]2 [D,F,]2 [D,A,]2 | [G,,G,]6 [G,,B,]2 | %9
 [C,C]2 [C,C]2 [A,,C]2 [G,,B,]2 | C4 [E,B,]2 [F,D]2 | [G,D]2 [D,C]2 [E,B,]2 [A,,E]2 | %12
 (D2 ^C2 =C2) [G,B,]2 | [A,C]2 [A,C]2 [D,A,]2 [D,A,]2 | [G,,G,]4 G,2 [B,,G,]2 | %15
 [C,G,]2 [C,G,]2 [D,F,]2 [D,A,]2 | [G,,G,]6 |] %17
V:4
 x2 | x8 | G,4 x4 | x8 | D,6 x2 | x8 | x4 G,2 x2 | x8 | x8 | x8 | (C,2 D,2) x4 | x8 | D,6 x2 | x8 | %14
 x4 G,2 x2 | x8 | x6 |] %17

